public/images/well/shape/6.svg

<svg width="100%" height="100%" viewBox="0 0 132 132" preserveAspectRatio="none" fill="none" xmlns="http://www.w3.org/2000/svg">
<path d="M125.776 0.0608071C122.588 0.0608071 119.989 2.65968 119.989 5.84773C119.989 19.2214 109.151 30.0608 95.7784 30.0608C82.4059 30.0608 71.5675 19.2214 71.5675 5.84773C71.5675 2.65968 68.9769 0.0608071 65.781 0.0608071C62.5852 0.0608071 59.9947 2.65968 59.9947 5.84773C59.9947 19.2214 49.1563 30.0608 35.7838 30.0608C22.4113 30.0608 11.5729 19.2214 11.5729 5.84773C11.5729 2.65968 8.97421 0.0608071 5.78644 0.0608071C2.59867 0.0608071 0 2.65968 0 5.84773V131.619H131.546V5.83966C131.546 2.6516 128.947 0.0527344 125.76 0.0527344L125.776 0.0608071Z" fill="#0E0E0E"/>
</svg>

<svg viewBox="0 0 132 132" preserveAspectRatio="none" fill="none" xmlns="http://www.w3.org/2000/svg"><path d="M125.776.06a5.797 5.797 0 0 0-5.787 5.788c0 13.373-10.838 24.213-24.21 24.213-13.373 0-24.212-10.84-24.212-24.213A5.792 5.792 0 0 0 65.781.06a5.792 5.792 0 0 0-5.786 5.787c0 13.373-10.839 24.213-24.211 24.213-13.373 0-24.211-10.84-24.211-24.213A5.797 5.797 0 0 0 5.786.06 5.797 5.797 0 0 0 0 5.848v125.771h131.546V5.839A5.797 5.797 0 0 0 125.76.054l.016.008Z" fill="#0E0E0E"/></svg>
